static/assets/images/icons/warning.svg

<svg width="256" height="256" viewBox="0 0 256 256" fill="none" xmlns="http://www.w3.org/2000/svg">
<path d="M50.367 213.761C33.1627 213.761 22.419 195.126 31.0389 180.237L108.672 46.1436C117.274 31.2855 138.726 31.2854 147.328 46.1436L224.961 180.237C233.581 195.126 222.837 213.761 205.633 213.761H50.367ZM52.9994 184.215C50.8377 187.937 53.5232 192.602 57.8276 192.602H198.172C202.477 192.602 205.162 187.937 203.001 184.215L132.828 63.3884C130.676 59.6827 125.324 59.6827 123.172 63.3884L52.9994 184.215ZM128 182.023C130.997 182.023 133.512 181.008 135.543 178.977C137.574 176.945 138.586 174.435 138.579 171.444C138.579 168.447 137.563 165.936 135.532 163.912C133.501 161.888 130.99 160.872 128 160.865C125.003 160.865 122.492 161.881 120.468 163.912C118.444 165.943 117.428 168.454 117.421 171.444C117.421 174.442 118.437 176.956 120.468 178.987C122.499 181.018 125.01 182.03 128 182.023ZM117.421 150.286H138.579V97.3911H117.421V150.286Z" fill="black"/>
</svg>

<svg xmlns="http://www.w3.org/2000/svg" fill="none" viewBox="0 0 256 256"><path fill="#000" d="M50.367 213.761c-17.204 0-27.948-18.635-19.328-33.524l77.633-134.093c8.602-14.858 30.054-14.859 38.656 0l77.633 134.093c8.62 14.889-2.124 33.524-19.328 33.524zm2.632-29.546c-2.161 3.722.524 8.387 4.829 8.387h140.344c4.305 0 6.99-4.665 4.829-8.387L132.828 63.388c-2.152-3.705-7.504-3.705-9.656 0zM128 182.023q4.496 0 7.543-3.046 3.047-3.047 3.036-7.533 0-4.496-3.047-7.532T128 160.865q-4.496 0-7.532 3.047t-3.047 7.532q0 4.497 3.047 7.543t7.532 3.036m-10.579-31.737h21.158V97.391h-21.158z"/></svg>
